usr/share/icons/biglinux-icons-material/scalable/mimetypes/text-x-apport.svg

<svg width="24" height="24" viewBox="0 0 24 24" fill="none" xmlns="http://www.w3.org/2000/svg">
<rect x="1" y="1" width="22" height="22" rx="6.6" fill="url(#paint0_radial_21_1186)"/>
<path opacity="0.75" d="M4 4V20H20V4H4.72727H4ZM4.72727 4.72727H19.2727V19.2727H4.72727V4.72727ZM6.18182 6.90909V7.63636H6.90909V6.90909H6.18182ZM6.90909 7.63636V9.09091H8.36364V7.63636H6.90909ZM8.36364 7.63636H9.09091V6.90909H8.36364V7.63636ZM8.36364 9.09091V9.81818H9.09091V9.09091H8.36364ZM6.90909 9.09091H6.18182V9.81818H6.90909V9.09091ZM14.9091 6.90909V7.63636H15.6364V6.90909H14.9091ZM15.6364 7.63636V9.09091H17.0909V7.63636H15.6364ZM17.0909 7.63636H17.8182V6.90909H17.0909V7.63636ZM17.0909 9.09091V9.81818H17.8182V9.09091H17.0909ZM15.6364 9.09091H14.9091V9.81818H15.6364V9.09091ZM9.81818 12.7273V14.1818H14.1818V12.7273H9.81818ZM14.1818 14.1818V15.6364H15.6364V14.1818H14.1818ZM15.6364 15.6364V17.0909H17.0909V15.6364H15.6364ZM9.81818 14.1818H8.36364V15.6364H9.81818V14.1818ZM8.36364 15.6364H6.90909V17.0909H8.36364V15.6364Z" fill="#D00310"/>
<defs>
<radialGradient id="paint0_radial_21_1186" cx="0" cy="0" r="1" gradientUnits="userSpaceOnUse" gradientTransform="translate(17.5 1) rotate(116.565) scale(24.5967)">
<stop stop-color="#F4F4F4"/>
<stop offset="1" stop-color="#BBBBBB"/>
</radialGradient>
</defs>
</svg>

<svg xmlns="http://www.w3.org/2000/svg" width="24" height="24" fill="none"><rect width="22" height="22" x="1" y="1" fill="url(#a)" rx="6.6"/><path fill="#D00310" d="M4 4v16h16V4H4Zm.727.727h14.546v14.546H4.727V4.727ZM6.182 6.91v.727h.727V6.91h-.727Zm.727.727v1.455h1.455V7.636H6.909Zm1.455 0h.727V6.91h-.727v.727Zm0 1.455v.727h.727v-.727h-.727Zm-1.455 0h-.727v.727h.727v-.727Zm8-2.182v.727h.727V6.91h-.727Zm.727.727v1.455h1.455V7.636h-1.455Zm1.455 0h.727V6.91h-.727v.727Zm0 1.455v.727h.727v-.727h-.727Zm-1.455 0h-.727v.727h.727v-.727Zm-5.818 3.636v1.455h4.364v-1.455H9.818Zm4.364 1.455v1.454h1.454v-1.454h-1.454Zm1.454 1.454v1.455h1.455v-1.455h-1.455Zm-5.818-1.454H8.364v1.454h1.454v-1.454Zm-1.454 1.454H6.909v1.455h1.455v-1.455Z" opacity=".75"/><defs><radialGradient id="a" cx="0" cy="0" r="1" gradientTransform="rotate(116.565 8.441 5.908) scale(24.5967)" gradientUnits="userSpaceOnUse"><stop stop-color="#F4F4F4"/><stop offset="1" stop-color="#BBB"/></radialGradient></defs></svg>
